X:1
T:Prescott (Stewart), 87.87.77
T:Robert Prescott Stewart, 1868
T:Prescott (Stewart), 87.87.77
T:Public Domain
C:Robert Prescott Stewart, 1868
Z:Public Domain
%%score ( 1 2 ) ( 3 4 )
L:1/8
M:4/4
K:D
V:1 treble 
V:2 treble 
V:3 bass 
V:4 bass 
V:1
 [FA]3 [DA] [EA]2 (Bc) | [Dd]2 [EA]2 F2 [CA]2 | D3 D [DE]2 [DE]2 | (DC)(B,C) [DF]4 | %4
 [FA]3 [FA] A2 (Bc) | [Fd]2 [FB]2 E2 z d x | [Ac]2 [EA]2 [DF]2 [FB]2 | [E^G]3 [EG] [EA]4 | %8
 [CE]2 [^DF]2 [EG]2 [GB]2 | [Ge]2 [Gd]2 [Gc]4 | [Gd]2 [EA]2 F2 [DG]2 | (D2 C)D D4 |] %12
V:2
 x6 E2 | x4 F2 x2 | D3 D x4 | G2 E2 x4 | x6 A2 | x4 e3 ^G2 | x8 | x8 | x8 | x8 | x4 F2 x2 | %11
 E3 D D4 |] %12
V:3
 [D,D]3 [F,D] [A,C]2 (B,A,) | [F,A,]2 [C,A,]2 [D,A,]2 [A,,G,]2 | %2
 [B,,F,]3 [B,,F,] [G,,B,]2 [G,,B,]2 | [A,,E,]2 [A,,A,]2 [D,A,]4 | D3 D [CE]2 [CE]2 | %5
 D2 z A, [^G,B,]2 [E,E]2 x | [A,E]2 [A,C]2 [D,A,]2 [B,,D]2 | (B,2 C)[E,D] [A,,C]4 | %8
 [G,A,]2 [F,A,]2 [E,B,]2 [D,B,]2 | [C,C]2 [B,,D]2 [A,,E]4 | [B,,D]2 [C,E]2 [D,A,]2 [F,A,]2 | %11
 A,2 [A,,G,]2 [D,F,]4 |] %12
V:4
 x6 G,2 | x8 | x8 | x8 | D3 D x4 | B,3 D2 x4 | x8 | E,3 x5 | x8 | x8 | x8 | A,2 x6 |] %12

